;FLAVOR:Marlin
;TIME:4749
;Filament used: 4.7786m
;Layer height: 0.3
;MINX:72.703
;MINY:89.698
;MINZ:0.3
;MAXX:134.789
;MAXY:120.302
;MAXZ:48.075
;Generated with Cura_SteamEngine 4.10.0
M82 ;absolute extrusion mode
G21                                        ; metric values 
G90                                        ; absolute positioning 
M82                                        ; set extruder to absolute mode 
M107                                       ; start with the fan off 
M140 S60           ; Start heating the bed 
G4 S60                                     ; wait 1 minute 
M104 S210         ; start heating the hot end 
M190 S60           ; wait for bed 
M109 S210         ; wait for hotend 
M300 S1000 P500                            ; BEEP heating done 
G28 X0 Y10 Z0                              ; move X/Y to min endstops 
M420 S1                                    ; Enable leveling 
M420 Z2.0                                  ; Set leveling fading height to 2 mm 
G0 Z0.15                                   ; lift nozzle a bit 
G92 E0                                     ; zero the extruded length 
G1 X50 E25 F500                            ; Extrude 25mm of filament in a 5cm line. 
G92 E0                                     ; zero the extruded length again 
G1 E-2 F500                                ; Retract a little 
G1 X120 F4000                              ; Quickly wipe away from the filament line`
G92 E0
G92 E0
G1 F1500 E-6
;LAYER_COUNT:160
;LAYER:0
M106 S76.5
M205 X10 Y10
G1 F600 Z0.375
G0 F6000 X76.076 Y93.465 Z0.375
M205 X8 Y8
;TYPE:SKIRT
G1 F600 Z0.3
G1 F1500 E0
G1 F1200 X76.497 Y93.184 E0.02525
G1 X76.697 Y93.062 E0.03694
G1 X77.57 Y92.618 E0.0858
G1 X77.839 Y92.506 E0.10034
G1 X78.717 Y92.213 E0.14652
G1 X78.913 Y92.163 E0.15661
G1 X79.476 Y92.046 E0.1853
G1 X79.569 Y92.031 E0.19
G1 X80.096 Y91.968 E0.21648
G1 X81.196 Y91.884 E0.27152
G1 X103.591 Y90.515 E1.39089
G1 X104.219 Y90.486 E1.42226
G1 X104.809 Y90.476 E1.4517
G1 X105.035 Y90.476 E1.46297
G1 X105.956 Y90.493 E1.50893
G1 X106.566 Y90.527 E1.53941
G1 X107.384 Y90.601 E1.58039
G1 X107.853 Y90.658 E1.60396
G1 X108.477 Y90.751 E1.63543
G1 X109.081 Y90.856 E1.66602
G1 X109.377 Y90.915 E1.68108
G1 X110.14 Y91.088 E1.72011
G1 X110.701 Y91.231 E1.74899
G1 X111.09 Y91.344 E1.7692
G1 X111.734 Y91.545 E1.80286
G1 X111.968 Y91.623 E1.81517
G1 X112.492 Y91.809 E1.84291
G1 X113.016 Y92.011 E1.87092
G1 X113.499 Y92.213 E1.89704
G1 X114.052 Y92.461 E1.92728
G1 X114.535 Y92.694 E1.95403
G1 X115.259 Y93.07 E1.99474
G1 X115.799 Y93.374 E2.02565
G1 X115.948 Y93.462 E2.03429
G1 X116.39 Y93.732 E2.06013
G1 X116.889 Y94.054 E2.08975
G1 X117.497 Y94.473 E2.12659
G1 X117.755 Y94.66 E2.14249
G1 X118.25 Y95.037 E2.17353
G1 X118.639 Y95.353 E2.19854
G1 X118.954 Y95.618 E2.21907
G1 X119.544 Y96.14 E2.25838
G1 X120.193 Y96.768 E2.30343
G1 X120.321 Y96.899 E2.31257
G1 X120.789 Y97.393 E2.34652
G1 X121.167 Y97.819 E2.37493
G1 X121.556 Y98.277 E2.40491
G1 X121.889 Y98.691 E2.43142
G1 X122.436 Y99.425 E2.47709
G1 X122.612 Y99.679 E2.4925
G1 X123.076 Y100.382 E2.53453
G1 X123.402 Y100.906 E2.56532
G1 X123.529 Y101.125 E2.57795
G1 X123.858 Y101.775 E2.61429
G1 X124.108 Y102.399 E2.64783
G1 X124.325 Y103.081 E2.68354
G1 X124.435 Y103.587 E2.70937
G1 X124.472 Y103.8 E2.72016
G1 X124.554 Y104.51 E2.75581
G1 X124.566 Y105.108 E2.78565
G1 X124.51 Y105.954 E2.82795
G1 X124.492 Y106.089 E2.83475
G1 X124.281 Y107.071 E2.88486
G1 X124.202 Y107.336 E2.89865
G1 X123.817 Y108.322 E2.95146
G1 X123.566 Y108.808 E2.97875
G1 X123.377 Y109.136 E2.99764
G1 X123.066 Y109.642 E3.02727
G1 X122.697 Y110.202 E3.06073
G1 X122.329 Y110.724 E3.09259
G1 X121.973 Y111.2 E3.12225
G1 X121.596 Y111.674 E3.15246
G1 X121.469 Y111.828 E3.16242
G1 X121.022 Y112.353 E3.19682
G1 X120.746 Y112.655 E3.21723
G1 X120.187 Y113.239 E3.25756
G1 X119.976 Y113.45 E3.27245
G1 X119.54 Y113.865 E3.30248
G1 X118.983 Y114.359 E3.33963
G1 X118.458 Y114.798 E3.37377
G1 X118.221 Y114.986 E3.38886
G1 X117.729 Y115.358 E3.41963
G1 X117.285 Y115.679 E3.44697
G1 X116.826 Y115.991 E3.47466
G1 X116.368 Y116.286 E3.50184
G1 X115.862 Y116.595 E3.53142
G1 X115.444 Y116.833 E3.55541
G1 X114.894 Y117.128 E3.58655
G1 X114.499 Y117.327 E3.60862
G1 X113.89 Y117.613 E3.64218
G1 X113.327 Y117.861 E3.67288
G1 X112.446 Y118.207 E3.7201
G1 X111.852 Y118.418 E3.75155
G1 X111.211 Y118.622 E3.78511
G1 X110.666 Y118.777 E3.81337
G1 X110.457 Y118.832 E3.82416
G1 X109.749 Y119.007 E3.86054
G1 X109.018 Y119.156 E3.89776
G1 X108.437 Y119.258 E3.92719
G1 X108.252 Y119.286 E3.93653
G1 X107.62 Y119.375 E3.96837
G1 X107.017 Y119.439 E3.99862
G1 X106.328 Y119.492 E4.0331
G1 X105.682 Y119.52 E4.06536
G1 X105.132 Y119.528 E4.0928
G1 X104.565 Y119.525 E4.12109
G1 X103.923 Y119.503 E4.15313
G1 X103.453 Y119.477 E4.17662
G1 X82.7 Y118.21 E5.21392
G1 X80.904 Y118.097 E5.3037
G1 X80.293 Y118.05 E5.33427
G1 X79.82 Y118.001 E5.358
G1 X79.114 Y117.883 E5.39371
G1 X78.278 Y117.648 E5.43703
G1 X77.606 Y117.403 E5.47272
G1 X76.946 Y117.079 E5.5094
G1 X76.155 Y116.589 E5.55582
G1 X75.966 Y116.452 E5.56746
G1 X75.163 Y115.762 E5.62028
G1 X74.962 Y115.558 E5.63457
G1 X74.279 Y114.738 E5.68782
G1 X74.12 Y114.511 E5.70164
G1 X73.687 Y113.797 E5.7433
G1 X73.601 Y113.632 E5.75258
G1 X73.306 Y112.98 E5.78829
G1 X73.067 Y112.26 E5.82614
G1 X72.909 Y111.647 E5.85772
G1 X72.857 Y111.394 E5.8706
G1 X72.752 Y110.687 E5.90626
G1 X72.727 Y110.225 E5.92935
G1 X72.703 Y108.873 E5.99681
G1 X72.705 Y100.669 E6.40611
G1 X72.715 Y99.982 E6.44039
G1 X72.748 Y99.389 E6.47002
G1 X72.854 Y98.621 E6.5087
G1 X72.921 Y98.287 E6.52569
G1 X73.166 Y97.403 E6.57146
G1 X73.225 Y97.237 E6.58025
G1 X73.589 Y96.405 E6.62555
G1 X73.746 Y96.106 E6.6424
G1 X74.307 Y95.222 E6.69464
G1 X74.434 Y95.054 E6.70514
G1 X74.896 Y94.508 E6.74083
G1 X75.521 Y93.916 E6.78378
G1 X76.076 Y93.465 E6.81945
M205 X10 Y10
G0 F6000 X76.328 Y93.776
M205 X8 Y8
G1 F1200 X76.905 Y93.404 E6.8537
G1 X77.724 Y92.987 E6.89956
G1 X77.993 Y92.875 E6.91409
G1 X78.816 Y92.6 E6.95738
G1 X79.012 Y92.55 E6.96748
G1 X79.54 Y92.441 E6.99437
G1 X80.127 Y92.367 E7.02389
G1 X81.221 Y92.283 E7.07863
G1 X103.612 Y90.914 E8.19781
G1 X104.225 Y90.886 E8.22842
G1 X104.815 Y90.876 E8.25786
G1 X105.028 Y90.876 E8.26849
G1 X105.949 Y90.893 E8.31445
G1 X106.53 Y90.925 E8.34348
G1 X107.348 Y90.999 E8.38445
G1 X107.794 Y91.054 E8.40687
G1 X108.583 Y91.173 E8.44668
G1 X109.289 Y91.306 E8.48252
G1 X110.204 Y91.515 E8.52935
G1 X110.818 Y91.68 E8.56107
G1 X110.971 Y91.725 E8.56902
G1 X111.615 Y91.926 E8.60268
G1 X111.834 Y92 E8.61422
G1 X112.358 Y92.186 E8.64196
G1 X112.87 Y92.383 E8.66932
G1 X113.335 Y92.578 E8.69448
G1 X114.031 Y92.892 E8.73257
G1 X114.35 Y93.049 E8.75031
G1 X115.074 Y93.425 E8.79101
G1 X115.6 Y93.721 E8.82113
G1 X115.74 Y93.804 E8.82925
G1 X116.182 Y94.074 E8.85509
G1 X116.671 Y94.389 E8.88411
G1 X117.271 Y94.803 E8.92047
G1 X117.512 Y94.978 E8.93533
G1 X118.007 Y95.355 E8.96638
G1 X118.552 Y95.801 E9.00151
G1 X118.689 Y95.918 E9.0105
G1 X119.273 Y96.434 E9.04938
G1 X119.911 Y97.051 E9.09366
G1 X120.031 Y97.175 E9.10227
G1 X120.499 Y97.669 E9.13622
G1 X120.865 Y98.081 E9.16371
G1 X121.363 Y98.672 E9.20227
G1 X121.688 Y99.084 E9.22845
G1 X122.113 Y99.661 E9.2642
G1 X122.279 Y99.899 E9.27868
G1 X122.743 Y100.602 E9.3207
G1 X123.056 Y101.107 E9.35034
G1 X123.183 Y101.326 E9.36297
G1 X123.492 Y101.935 E9.39704
G1 X123.734 Y102.542 E9.42964
G1 X123.944 Y103.202 E9.4642
G1 X124.077 Y103.868 E9.49808
G1 X124.166 Y104.895 E9.54951
G1 X124.166 Y105.108 E9.56014
G1 X124.113 Y105.901 E9.59979
G1 X124.095 Y106.036 E9.60658
G1 X123.898 Y106.957 E9.65357
G1 X123.819 Y107.222 E9.66737
G1 X123.458 Y108.146 E9.71686
G1 X123.213 Y108.619 E9.74343
G1 X123.037 Y108.927 E9.76113
G1 X122.726 Y109.433 E9.79076
G1 X122.365 Y109.979 E9.82342
G1 X122.007 Y110.487 E9.85443
G1 X121.66 Y110.951 E9.88333
G1 X121.283 Y111.425 E9.91355
G1 X121.164 Y111.569 E9.92287
G1 X120.724 Y112.086 E9.95674
G1 X120.457 Y112.379 E9.97651
G1 X119.898 Y112.963 E10.01685
G1 X119.701 Y113.16 E10.03075
G1 X119.265 Y113.575 E10.06078
G1 X118.72 Y114.057 E10.09707
G1 X118.202 Y114.49 E10.13076
G1 X117.98 Y114.667 E10.14492
G1 X117.488 Y115.039 E10.17569
G1 X117.052 Y115.354 E10.20253
G1 X116.609 Y115.655 E10.22925
G1 X116.151 Y115.95 E10.25643
G1 X115.655 Y116.253 E10.28543
G1 X115.255 Y116.48 E10.30837
G1 X114.576 Y116.843 E10.34679
G1 X114.328 Y116.965 E10.36057
G1 X113.719 Y117.251 E10.39414
G1 X113.167 Y117.495 E10.42425
G1 X112.302 Y117.834 E10.4706
G1 X111.728 Y118.038 E10.50099
G1 X111.101 Y118.237 E10.53381
G1 X110.556 Y118.392 E10.56208
G1 X110.361 Y118.444 E10.57215
G1 X109.661 Y118.617 E10.60812
G1 X108.941 Y118.764 E10.64479
G1 X108.369 Y118.863 E10.67375
G1 X108.197 Y118.89 E10.68243
G1 X107.565 Y118.979 E10.71427
G1 X106.979 Y119.041 E10.74367
G1 X106.296 Y119.093 E10.77785
G1 X105.669 Y119.121 E10.80916
G1 X105.134 Y119.128 E10.83585
G1 X104.567 Y119.125 E10.86414
G1 X103.939 Y119.103 E10.89549
G1 X103.478 Y119.078 E10.91852
G1 X82.725 Y117.811 E11.95582
G1 X80.935 Y117.698 E12.0453
G1 X80.324 Y117.651 E12.07588
G1 X79.863 Y117.604 E12.099
G1 X79.181 Y117.488 E12.13351
G1 X78.393 Y117.265 E12.17437
G1 X77.743 Y117.026 E12.20892
G1 X77.131 Y116.724 E12.24297
G1 X76.39 Y116.265 E12.28645
G1 X76.201 Y116.128 E12.2981
G1 X75.448 Y115.481 E12.34763
G1 X75.247 Y115.277 E12.36192
G1 X74.607 Y114.508 E12.41183
G1 X74.448 Y114.281 E12.42566
G1 X74.041 Y113.612 E12.46473
G1 X73.955 Y113.447 E12.47401
G1 X73.671 Y112.816 E12.50853
G1 X73.449 Y112.141 E12.54398
G1 X73.301 Y111.567 E12.57356
G1 X73.249 Y111.314 E12.58644
G1 X73.149 Y110.629 E12.62098
G1 X73.127 Y110.218 E12.64151
G1 X73.103 Y108.873 E12.70863
G1 X73.105 Y100.675 E13.11763
G1 X73.115 Y99.988 E13.1519
G1 X73.147 Y99.42 E13.18029
G1 X73.246 Y98.7 E13.21655
G1 X73.313 Y98.366 E13.23354
G1 X73.542 Y97.537 E13.27645
G1 X73.601 Y97.371 E13.28524
G1 X73.943 Y96.591 E13.32773
G1 X74.1 Y96.292 E13.34458
G1 X74.626 Y95.463 E13.39356
G1 X74.753 Y95.295 E13.40407
G1 X75.202 Y94.767 E13.43864
G1 X75.79 Y94.212 E13.47898
G1 X76.328 Y93.776 E13.51353
M205 X10 Y10
G0 F6000 X76.58 Y94.087
M205 X8 Y8
G1 F1200 X77.114 Y93.745 E13.54517
G1 X77.878 Y93.356 E13.58794
G1 X78.147 Y93.244 E13.60248
G1 X78.915 Y92.988 E13.64287
G1 X79.111 Y92.938 E13.65296
G1 X79.603 Y92.835 E13.67804
G1 X80.158 Y92.766 E13.70594
G1 X81.245 Y92.682 E13.76033
G1 X103.633 Y91.314 E14.87936
G1 X104.232 Y91.286 E14.90927
G1 X104.822 Y91.276 E14.93871
G1 X105.02 Y91.276 E14.94859
G1 X105.941 Y91.293 E14.99455
G1 X106.494 Y91.324 E15.02218
G1 X107.312 Y91.398 E15.06316
G1 X107.735 Y91.449 E15.08441
G1 X108.359 Y91.542 E15.11589
G1 X108.941 Y91.643 E15.14536
G1 X109.2 Y91.696 E15.15855
G1 X109.963 Y91.869 E15.19758
G1 X110.483 Y92.001 E15.22435
G1 X110.851 Y92.107 E15.24345
G1 X111.495 Y92.308 E15.27711
G1 X111.7 Y92.377 E15.2879
G1 X112.224 Y92.563 E15.31564
G1 X112.724 Y92.755 E15.34236
G1 X113.172 Y92.943 E15.3666
G1 X113.725 Y93.191 E15.39684
G1 X114.166 Y93.404 E15.42127
G1 X114.89 Y93.78 E15.46197
G1 X115.401 Y94.068 E15.49124
G1 X115.531 Y94.145 E15.49878
G1 X116.107 Y94.499 E15.53251
G1 X116.631 Y94.845 E15.56383
G1 X117.045 Y95.133 E15.58899
G1 X117.27 Y95.296 E15.60286
G1 X117.765 Y95.673 E15.6339
G1 X118.297 Y96.109 E15.66821
G1 X118.425 Y96.218 E15.6766
G1 X118.904 Y96.64 E15.70845
G1 X119.325 Y97.033 E15.73718
G1 X119.74 Y97.45 E15.76653
G1 X120.208 Y97.944 E15.80048
G1 X120.563 Y98.344 E15.82717
G1 X120.945 Y98.794 E15.85662
G1 X121.264 Y99.19 E15.88198
G1 X121.79 Y99.897 E15.92595
G1 X121.945 Y100.119 E15.93946
G1 X122.409 Y100.822 E15.98148
G1 X122.71 Y101.308 E16.01
G1 X122.837 Y101.527 E16.02263
G1 X123.125 Y102.095 E16.0544
G1 X123.361 Y102.684 E16.08606
G1 X123.562 Y103.323 E16.11948
G1 X123.683 Y103.937 E16.1507
G1 X123.766 Y104.895 E16.19867
G1 X123.766 Y105.108 E16.2093
G1 X123.717 Y105.848 E16.2463
G1 X123.699 Y105.983 E16.2531
G1 X123.515 Y106.843 E16.29697
G1 X123.436 Y107.108 E16.31077
G1 X123.099 Y107.97 E16.35694
G1 X122.861 Y108.43 E16.38278
G1 X122.696 Y108.717 E16.3993
G1 X122.385 Y109.223 E16.42893
G1 X122.033 Y109.755 E16.46076
G1 X121.685 Y110.249 E16.4909
G1 X121.347 Y110.702 E16.5191
G1 X120.97 Y111.176 E16.54932
G1 X120.859 Y111.311 E16.55804
G1 X120.52 Y111.711 E16.58419
G1 X120.168 Y112.102 E16.61044
G1 X119.609 Y112.686 E16.65077
G1 X119.425 Y112.87 E16.66376
G1 X118.989 Y113.285 E16.69379
G1 X118.457 Y113.755 E16.7292
G1 X117.946 Y114.183 E16.76246
G1 X117.738 Y114.348 E16.7757
G1 X117.246 Y114.72 E16.80648
G1 X116.818 Y115.029 E16.83281
G1 X116.392 Y115.319 E16.85852
G1 X115.934 Y115.614 E16.8857
G1 X115.448 Y115.911 E16.91412
G1 X115.066 Y116.128 E16.93604
G1 X114.395 Y116.486 E16.97398
G1 X114.158 Y116.603 E16.98717
G1 X113.549 Y116.889 E17.02073
G1 X113.007 Y117.128 E17.05028
G1 X112.157 Y117.461 E17.09583
G1 X111.605 Y117.658 E17.12507
G1 X110.992 Y117.852 E17.15715
G1 X110.447 Y118.007 E17.18542
G1 X110.264 Y118.056 E17.19487
G1 X109.688 Y118.199 E17.22448
G1 X108.863 Y118.371 E17.26652
G1 X108.302 Y118.469 E17.29493
G1 X108.141 Y118.494 E17.30306
G1 X107.509 Y118.583 E17.3349
G1 X106.941 Y118.643 E17.3634
G1 X106.264 Y118.694 E17.39727
G1 X105.655 Y118.721 E17.42768
G1 X105.136 Y118.728 E17.45358
G1 X104.569 Y118.725 E17.48187
G1 X103.956 Y118.703 E17.51247
G1 X103.502 Y118.679 E17.53515
G1 X82.75 Y117.412 E18.5724
G1 X80.965 Y117.3 E18.66163
G1 X80.354 Y117.253 E18.6922
G1 X79.907 Y117.206 E18.71463
G1 X79.248 Y117.093 E18.74798
G1 X78.509 Y116.882 E18.78633
G1 X77.882 Y116.65 E18.81968
G1 X77.317 Y116.37 E18.85114
G1 X76.624 Y115.941 E18.8918
G1 X76.435 Y115.804 E18.90345
G1 X75.733 Y115.2 E18.94965
G1 X75.532 Y114.996 E18.96394
G1 X74.934 Y114.279 E19.01052
G1 X74.775 Y114.052 E19.02434
G1 X74.396 Y113.427 E19.06081
G1 X74.31 Y113.262 E19.07009
G1 X73.929 Y112.338 E19.11996
G1 X73.831 Y112.023 E19.13642
G1 X73.693 Y111.486 E19.16408
G1 X73.641 Y111.233 E19.17696
G1 X73.545 Y110.571 E19.21034
G1 X73.527 Y110.211 E19.22832
G1 X73.503 Y108.873 E19.29508
G1 X73.505 Y100.68 E19.70383
G1 X73.515 Y99.993 E19.73811
G1 X73.545 Y99.45 E19.76524
G1 X73.638 Y98.779 E19.79904
G1 X73.705 Y98.445 E19.81604
G1 X73.919 Y97.671 E19.8561
G1 X73.978 Y97.505 E19.86489
G1 X74.297 Y96.777 E19.90454
G1 X74.454 Y96.478 E19.92139
G1 X74.945 Y95.704 E19.96712
G1 X75.072 Y95.536 E19.97763
G1 X75.506 Y95.027 E20.011
G1 X76.059 Y94.508 E20.04884
G1 X76.58 Y94.087 E20.08225
M205 X10 Y10
G0 F6000 X76.831 Y94.4
M205 X8 Y8
G1 F1200 X77.322 Y94.087 E20.1113
G1 X78.031 Y93.725 E20.15102
G1 X78.3 Y93.613 E20.16556
G1 X79.014 Y93.375 E20.20311
G1 X79.667 Y93.23 E20.23648
G1 X80.188 Y93.164 E20.26268
G1 X81.27 Y93.082 E20.31681
G1 X103.654 Y91.713 E21.43564
G1 X104.239 Y91.686 E21.46486
G1 X104.829 Y91.676 E21.4943
G1 X105.013 Y91.676 E21.50348
G1 X105.934 Y91.693 E21.54944
G1 X106.458 Y91.722 E21.57562
G1 X107.276 Y91.796 E21.6166
G1 X107.677 Y91.845 E21.63675
G1 X108.301 Y91.938 E21.66823
G1 X108.871 Y92.037 E21.69709
G1 X109.112 Y92.086 E21.70936
G1 X110.007 Y92.29 E21.75515
G1 X110.6 Y92.45 E21.7858
G1 X110.732 Y92.489 E21.79266
G1 X111.376 Y92.69 E21.82632
G1 X111.566 Y92.754 E21.83633
G1 X112.09 Y92.94 E21.86407
G1 X112.578 Y93.128 E21.89016
G1 X113.008 Y93.308 E21.91341
G1 X113.561 Y93.556 E21.94365
G1 X113.982 Y93.759 E21.96697
G1 X114.706 Y94.135 E22.00767
G1 X115.202 Y94.415 E22.03608
G1 X115.323 Y94.486 E22.04308
G1 X115.765 Y94.756 E22.06892
G1 X116.235 Y95.06 E22.09685
G1 X116.818 Y95.463 E22.13221
G1 X117.028 Y95.614 E22.14511
G1 X117.523 Y95.991 E22.17616
G1 X118.041 Y96.416 E22.20958
G1 X118.16 Y96.518 E22.2174
G1 X118.73 Y97.022 E22.25536
G1 X119.346 Y97.618 E22.29813
G1 X119.45 Y97.725 E22.30557
G1 X119.918 Y98.219 E22.33952
G1 X120.261 Y98.606 E22.36532
G1 X120.64 Y99.053 E22.39456
G1 X121.048 Y99.564 E22.42718
G1 X121.467 Y100.133 E22.46243
G1 X121.611 Y100.34 E22.47501
G1 X122.147 Y101.155 E22.52368
G1 X122.491 Y101.727 E22.55698
G1 X122.759 Y102.255 E22.58652
G1 X122.987 Y102.827 E22.61724
G1 X123.179 Y103.443 E22.64943
G1 X123.289 Y104.005 E22.678
G1 X123.366 Y104.895 E22.72257
G1 X123.366 Y105.108 E22.7332
